svgs/duotone/washing-machine.svg

<svg xmlns="http://www.w3.org/2000/svg" viewBox="0 0 448 512"><!-- Font Awesome Pro 6.0.0-alpha2 by @fontawesome - https://fontawesome.com License - https://fontawesome.com/license (Commercial License) --><defs><style>.fa-secondary{opacity:.4}</style></defs><path d="M334.133 285.25C313.6 305.25 280.871 304.875 260.836 284.25V284.375C251.254 294.375 237.938 300 224 300S196.746 294.375 187.164 284.375C167.129 304.875 134.4 305.25 113.867 285.375C112.746 291.5 112.125 297.75 112 304C112 365.875 162.15 416 224 416S336 365.875 336 304C335.877 297.75 335.254 291.5 334.133 285.25ZM184 112C197.254 112 208 101.254 208 88C208 74.744 197.254 64 184 64S160 74.744 160 88C160 101.254 170.746 112 184 112Z" class="fa-secondary"/><path d="M384.035 0.001H63.965C28.623 0.001 0 28.626 0 64.001V480.001C0 497.626 14.311 512.001 31.982 512.001H416.018C433.689 512.001 448 497.626 448 480.001V64.001C448 28.626 419.379 0.001 384.035 0.001ZM184.062 64.001C197.277 64.001 208 74.751 208 88.001S197.277 112.001 184.062 112.001C170.723 112.001 160 101.251 160 88.001S170.723 64.001 184.062 64.001ZM64 88.001C64 74.751 74.818 64.001 88 64.001C101.307 64.001 112 74.751 112 88.001S101.307 112.001 88 112.001C74.818 112.001 64 101.251 64 88.001ZM224 448.001C144.48 448.001 80.018 383.501 80.018 304.001S144.48 160.001 224 160.001S367.982 224.501 367.982 304.001S303.52 448.001 224 448.001Z" class="fa-primary"/></svg>

<svg xmlns="http://www.w3.org/2000/svg" viewBox="0 0 448 512"><!--! Font Awesome Pro 6.3.0 by @fontawesome - https://fontawesome.com License - https://fontawesome.com/license (Commercial License) Copyright 2023 Fonticons, Inc. --><defs><style>.fa-secondary{opacity:.4}</style></defs><path class="fa-primary" d="M384 .0002H63.98C28.63 .0002 0 28.63 0 64v416c0 17.62 14.31 32 31.98 32h384c17.67 0 31.98-14.38 31.98-32V64C448 28.63 419.4 .0002 384 .0002zM184 64C197.3 64 208 74.75 208 88s-10.74 24-23.96 24C170.7 112 160 101.3 160 88S170.7 64 184 64zM64 88c0-13.25 10.82-24 24-24c13.31 0 24 10.75 24 24s-10.69 24-24 24C74.82 112 64 101.3 64 88zM224 448c-79.52 0-143.1-64.5-143.1-144S144.5 160 224 160s143.1 64.5 143.1 144S303.5 448 224 448z"/><path class="fa-secondary" d="M334.1 285.3c-20.53 20-53.26 19.62-73.3-1C251.3 294.3 237.9 300 224 300S196.7 294.4 187.2 284.4c-20.04 20.5-52.76 20.88-73.3 1C112.7 291.5 112.1 297.8 112 304c0 61.88 50.15 112 112 112s112-50.13 112-112C335.9 297.8 335.3 291.5 334.1 285.3zM184 112C197.3 112 208 101.3 208 88c0-13.26-10.7-24-23.96-24S160 74.74 160 88C160 101.3 170.8 112 184 112z"/></svg>
